X: 22662
T: Lake St. John
R: reel
M: 4/4
K: Gmajor
D/E/F|:G2GF GABc|dgge dBB2|g2ge dBGA|~B2AB AGEF|
G2GF GABc|dgge dBB2|g2ge dBGA|1 ~B2AF G2D/E/F:|2 ~B2AF G2BA||
K: Emin
|:G2E2 EFGA|BGAB E2AG|F2D2 DEFG|AGFA D2BA|
GAGF EFED|B,2E2 E2EF|EDEF GFED|1 ~E3D E2BA:|2 ~E3D E2D/E/F||

